X:1
T:Title
%%score { ( 1 3 ) | ( 2 4 ) }
L:1/8
Q:1/4=81
M:6/8
K:Bb
V:1 treble nm="Grand Piano"
V:3 treble 
V:2 bass 
V:4 bass 
V:1
 [DF][EG][DF] [B,D][DF][DB] | [EB]2 [EA] A2 A | c>BA G2 A | [DF]6 | [DF][EG][DF] [B,D][DF][DB] | %5
w: Haldor~Lillenas * * * * *|||||
 [FA]2 [FA] [Fc]2 c | cGA B2 G | c6 |[M:1/8] [DF] |[M:3/4] [Fd]>[Ec] [DB] [DF]2 [DG] | A6 | %11
w: ||||||
 z2 .c2 z2 |[M:5/8] [Fd]-[Fd]- [Fd]3 |[M:1/8] [DF] |[M:3/4] [DF][_D=E] [=DF][Fd] [Fc][FB] | %15
w: ||||
 [GB][^FA] [GB][Ac] [GB]G | FB [Ge] [Fd]2 [Ec] | B6 |] %18
w: |||
V:2
 [B,,B,][B,,B,][B,,B,] [B,,F,][B,,F,][B,,F,] | [C,F,]2 [C,F,] [F,CE]2 [F,CE] | %2
 [F,A,E]>[F,B,E][F,CE] [F,A,E]2 [F,CE] | [B,,B,]6 | [B,,B,][B,,B,][B,,B,] [B,,F,][B,,F,][B,,F,] | %5
 [C,C]2 [C,C] [C,A,]2[K:treble] [F,A,F] | [G,C=E][B,CE][A,CF] [G,CG]2 [B,CE] | %7
 [A,CF]3[K:bass] [F,A,]3 |[M:1/8] [B,,B,] |[M:3/4] [B,,B,]>[B,,B,] [B,,B,] [B,,B,]2 [B,,B,] | %10
 [F,CE]2 [F,C] [F,C]2 [F,CE] | [F,A,F]>[E,B,F] .[F,A,F] [D,B,]2 [C,A,] |[M:5/8] [B,,B,]2 B,, B,,2 | %13
[M:1/8] [B,,B,] |[M:3/4] [B,,B,][B,,B,] [B,,B,][B,,B,] [C,A,][D,B,] | %15
 [E,B,][E,B,] [E,B,][E,E] [E,E][E,B,E] | [F,B,D][F,B,D] [E,B,] [F,B,]2 [F,A,] | z2 G, .F,3 |] %18
V:3
 x6 | x6 | x6 | x6 | x6 | x6 | x6 | z3 E3 |[M:1/8] x |[M:3/4] x6 | z2 E E2 A | %11
 e>d z/ E,/ [FB]2 [Fc] |[M:5/8] z2 B, B,2 |[M:1/8] x |[M:3/4] x6 | x6 | x6 | [B,D]2 E .D3 |] %18
V:4
 x6 | x6 | x6 | x6 | x6 | x5[K:treble] x | x6 | x3[K:bass] x3 |[M:1/8] x |[M:3/4] x6 | x6 | x6 | %12
[M:5/8] x5 |[M:1/8] x |[M:3/4] x6 | x6 | x6 | B,,6 |] %18

